X:1
T: The Flowers of Limerick
P:Ryan's version
R:Reel
Q: 232
K:G
M:4/4
L:1/8
|:GF|DG GF G2 G_B|A=F cF dF cF|D=F FE F2 FG|AF cF dF cF|
D2 GF G2 GA|_BA Bc d^c de|=fe fd cA FA|_Bd cA G2:|
|:G2|G3g gf ga|_bg ag bg ag|F3=f fe fg|af gf af gf|
G3g gf ga|_bg ag bg ag|=fe fd cA FA|_Bd cA G2:|
